X: 542
T: Durham's Reel
C:Traditional, Arr. Tim O'Brien
B: jims roots
M:4/4
L:1/8
Q: 1/4=100
K:A
V:1 
%Tabledited By  Mike Stangeland
%480
x A,A, |: "A"A,B,CE FECF | EAFE FECE | "D"DEFA BAFB | AdBA BAFD |
"E"EFGB cBGc | BecB ceef | gefe cABc |[1  E"A"FAB A2A2:|
[2 A"A"GAB A2A2 || "A"E=GBd cBcd | ef=gf ebag | "D"f=gaf gfd2 |
edBd AFD2 | "B"[^A=F][B^F] [B2F2][B2F2]E2 | D^D[DB,][DB,] [DB,][DB,][D2A,2] | "E"EFGA BGBc |
dBcd efgf | "A"eafe fecf | ecBc AdBA | "D"BAFB AFEF |
DFEF D4 | "E"EFGA BGBc | dBcd edee | eeee eA=c^c |
"A"AC [AC][AC] [AC][AC] C2 |
% abcbook-tune_id 6298c25d8e57ab70b871b07a


% abcbook-boost 0
% abcbook-tablature 
% abcbook-transpose 
% abcbook-lastupdated 1654178397782
% abcbook-soundfonts 
% abcbook-repeats 1


